X: 15
T: Ballydesmond, The
Z: Andrea Abler
S: https://thesession.org/tunes/239#setting53105
R: polka
M: 2/4
L: 1/8
K: Ador
AB|:"C"c2 "G"B2|"D"A2 "G"G>A|"G"Bd ed|"Em"g2 g>f|
"Am"ea "G"(3g/a/g/e|"G"dB "Em"GA/B/|"Am"ce "G"dB|"Am"A2A2:|
|:"Am"ea ag/e/|"G"dg gd|"Am"ea ab|"Em"g2 g>f|
"Am"ea "G"(3g/a/g/e|"G"dB "Em"GA/B/|"Am"ce "G"dB|"Am"A2A2:|

